src/img/testimonial-blob-1.svg

<svg height="555" viewBox="0 0 747 555" width="747" xmlns="http://www.w3.org/2000/svg"><path d="m794.444965 163.112143c74.818972 41.030842 96.019737 118.946929 125.059984 174.829426 29.040248 55.756636 19.763502 122.840805-27.628569 177.968133-27.39208 31.862972-100.995234 103.047181-198.098932 129.171781-83.839297 22.55597-240.582676 5.873388-333.148466-17.536847-92.56579-23.410236-124.419935-77.368495-158.883139-138.488633-34.463205-61.120138-48.829847-126.244389-24.831309-180.490687 23.796869-54.120436 212.00819-172.661523 294.288892-172.535662 82.280702.125862 248.422568-14.074215 323.241539 27.082489z" fill="#e1f1fb" transform="matrix(-.96592582 -.25881904 .25881904 -.96592582 804.875026 803.411367)"/></svg>

<?xml version="1.0" encoding="UTF-8"?>
<svg width="747px" height="555px" viewBox="0 0 747 555" version="1.1" xmlns="http://www.w3.org/2000/svg" xmlns:xlink="http://www.w3.org/1999/xlink">
    <!-- Generator: Sketch 62 (91390) - https://sketch.com -->
    <title>blob-shape (2)</title>
    <desc>Created with Sketch.</desc>
    <g id="Page-1" stroke="none" stroke-width="1" fill="none" fill-rule="evenodd">
        <g id="Desktop-HD" transform="translate(-619.000000, -4969.000000)" fill="#E1F1FB" fill-rule="nonzero">
            <g id="blob-shape-(2)" transform="translate(1065.500000, 5312.000000) rotate(-143.000000) translate(-1065.500000, -5312.000000) translate(610.000000, 4925.000000)">
                <path d="M794.444965,163.112143 C869.263937,204.142985 890.464702,282.059072 919.504949,337.941569 C948.545197,393.698205 939.268451,460.782374 891.87638,515.909702 C864.4843,547.772674 790.881146,618.956883 693.777448,645.081483 C609.938151,667.637453 453.194772,650.954871 360.628982,627.544636 C268.063192,604.1344 236.209047,550.176141 201.745843,489.056003 C167.282638,427.935865 152.915996,362.811614 176.914534,308.565316 C200.711403,254.44488 388.922724,135.903793 471.203426,136.029654 C553.484128,136.155516 719.625994,121.955439 794.444965,163.112143 Z" id="Path" transform="translate(550.523028, 394.762045) rotate(-22.000000) translate(-550.523028, -394.762045) "></path>
            </g>
        </g>
    </g>
</svg>
